X:1
T: J.M. Duthie
C:
R:Strathspey
Q: 128
K:D
M:4/4
L:1/16
|:A2|dA3 F3A D4 D3A|B3A G3F E4 E3A|dA3 F3A D4 D3F|((3G2A2B2) A3c d6d2|
dA3 F3A D4 D3A|B3A G3F E4 E3A|dA3 F3A D4 D3F|((3G2A2B2) |A3c d6de|
fd3 d3A B3d A3f|ge3 e3d c3e A2de|fd3 d3A B3d A3F|((3G2A2B2) A3c d6de|
fd3 d3A B3d A3f|ge3 e3d c3e A2de|fd3 d3A B3d A3F|((3G2A2B2) A3c d6:|
